assets/svg/icon_camera_open.svg

<svg width="24" height="24" viewBox="0 0 24 24" fill="none" xmlns="http://www.w3.org/2000/svg">
<path d="M5.02016 19.6186L5.35558 19.1073H5.35558L5.02016 19.6186ZM3.95232 18.5702L4.45785 18.2261H4.45785L3.95232 18.5702ZM20.0644 18.5702L19.5589 18.2261L20.0644 18.5702ZM18.9966 19.6186L18.6612 19.1073L18.6612 19.1073L18.9966 19.6186ZM20.0644 8.64782L19.5589 8.99186L20.0644 8.64782ZM18.9966 7.5994L18.6612 8.11069L18.6612 8.11069L18.9966 7.5994ZM3.95232 8.64782L4.45785 8.99186L3.95232 8.64782ZM5.02016 7.5994L5.35558 8.11069L5.35558 8.11069L5.02016 7.5994ZM8.81533 6.00898L9.41452 6.13104V6.13104L8.81533 6.00898ZM7.63505 6.98823V6.37674H7.62169L7.60834 6.37732L7.63505 6.98823ZM15.2014 6.00898L15.8006 5.88693V5.88693L15.2014 6.00898ZM16.3817 6.98823L16.4084 6.37732L16.3951 6.37674H16.3817V6.98823ZM18.1042 11.2913C18.4419 11.2913 18.7157 11.0175 18.7157 10.6798C18.7157 10.3421 18.4419 10.0683 18.1042 10.0683V11.2913ZM17.2334 10.0683C16.8957 10.0683 16.6219 10.3421 16.6219 10.6798C16.6219 11.0175 16.8957 11.2913 17.2334 11.2913V10.0683ZM14.0094 13.2923C14.0094 14.3974 13.1135 15.2933 12.0084 15.2933V16.5163C13.7889 16.5163 15.2324 15.0729 15.2324 13.2923H14.0094ZM12.0084 15.2933C10.9033 15.2933 10.0074 14.3974 10.0074 13.2923H8.78439C8.78439 15.0729 10.2278 16.5163 12.0084 16.5163V15.2933ZM10.0074 13.2923C10.0074 12.1872 10.9033 11.2913 12.0084 11.2913V10.0683C10.2278 10.0683 8.78439 11.5118 8.78439 13.2923H10.0074ZM12.0084 11.2913C13.1135 11.2913 14.0094 12.1872 14.0094 13.2923H15.2324C15.2324 11.5118 13.7889 10.0683 12.0084 10.0683V11.2913ZM13.9436 19.6475H10.0732V20.8705H13.9436V19.6475ZM10.0732 19.6475C8.70175 19.6475 7.71836 19.6468 6.95431 19.5705C6.19993 19.4951 5.72711 19.351 5.35558 19.1073L4.68473 20.1299C5.2894 20.5265 5.98415 20.7026 6.83277 20.7874C7.67171 20.8712 8.72675 20.8705 10.0732 20.8705V19.6475ZM2.68855 13.609C2.68855 14.9303 2.68779 15.9681 2.77334 16.7938C2.86002 17.6304 3.04046 18.3171 3.44679 18.9142L4.45785 18.2261C4.21191 17.8647 4.06621 17.4051 3.98982 16.6678C3.91231 15.9197 3.91154 14.9562 3.91154 13.609H2.68855ZM5.35558 19.1073C4.99962 18.8738 4.69473 18.5742 4.45785 18.2261L3.44679 18.9142C3.77467 19.396 4.19548 19.8089 4.68474 20.1299L5.35558 19.1073ZM20.1052 13.609C20.1052 14.9562 20.1045 15.9197 20.0269 16.6678C19.9505 17.4051 19.8049 17.8647 19.5589 18.2261L20.57 18.9142C20.9763 18.3171 21.1567 17.6304 21.2434 16.7938C21.329 15.9681 21.3282 14.9303 21.3282 13.609H20.1052ZM13.9436 20.8705C15.29 20.8705 16.345 20.8712 17.184 20.7874C18.0326 20.7026 18.7274 20.5265 19.332 20.1299L18.6612 19.1073C18.2897 19.351 17.8168 19.4951 17.0625 19.5705C16.2984 19.6468 15.315 19.6475 13.9436 19.6475V20.8705ZM19.5589 18.2261C19.322 18.5742 19.0171 18.8738 18.6612 19.1073L19.332 20.1299C19.8213 19.8089 20.2421 19.396 20.57 18.9142L19.5589 18.2261ZM21.3282 13.609C21.3282 12.2877 21.329 11.2499 21.2434 10.4241C21.1567 9.58757 20.9763 8.90084 20.57 8.30378L19.5589 8.99186C19.8049 9.35325 19.9505 9.81285 20.0269 10.5502C20.1045 11.2983 20.1052 12.2618 20.1052 13.609H21.3282ZM18.6612 8.11069C19.0171 8.34421 19.322 8.64379 19.5589 8.99186L20.57 8.30378C20.2421 7.822 19.8213 7.40907 19.332 7.08811L18.6612 8.11069ZM3.91154 13.609C3.91154 12.2618 3.91231 11.2983 3.98982 10.5502C4.06621 9.81285 4.21191 9.35325 4.45785 8.99186L3.44679 8.30378C3.04046 8.90084 2.86002 9.58757 2.77334 10.4241C2.68779 11.2499 2.68855 12.2877 2.68855 13.609H3.91154ZM4.68473 7.08811C4.19548 7.40908 3.77467 7.822 3.44679 8.30378L4.45785 8.99186C4.69473 8.64379 4.99962 8.34421 5.35558 8.11069L4.68473 7.08811ZM10.5857 5.19548H13.431V3.97249H10.5857V5.19548ZM8.21614 5.88693C8.15874 6.16868 7.9039 6.37674 7.63505 6.37674V7.59972C8.51372 7.59972 9.24686 6.95406 9.41452 6.13104L8.21614 5.88693ZM14.6022 6.13104C14.7699 6.95406 15.503 7.59972 16.3817 7.59972V6.37674C16.1129 6.37674 15.858 6.16868 15.8006 5.88693L14.6022 6.13104ZM13.431 5.19548C14.0086 5.19548 14.493 5.59468 14.6022 6.13104L15.8006 5.88693C15.5723 4.76614 14.5747 3.97249 13.431 3.97249V5.19548ZM10.5857 3.97249C9.44205 3.97249 8.44445 4.76614 8.21614 5.88693L9.41452 6.13104C9.52377 5.59468 10.0082 5.19548 10.5857 5.19548V3.97249ZM16.355 7.59914C17.5388 7.6509 18.1804 7.79528 18.6612 8.11069L19.332 7.08811C18.5583 6.5805 17.6293 6.43071 16.4084 6.37732L16.355 7.59914ZM7.60834 6.37732C6.38745 6.43071 5.45849 6.5805 4.68473 7.08811L5.35558 8.11069C5.83636 7.79528 6.47801 7.6509 7.66177 7.59914L7.60834 6.37732ZM18.1042 10.0683H17.2334V11.2913H18.1042V10.0683Z" fill="#0166FF"/>
</svg>

<svg xmlns="http://www.w3.org/2000/svg" width="24" height="24" fill="none"><path fill="#0166FF" d="m5.02 19.619.336-.512zM3.952 18.57l.506-.344zm16.112 0-.505-.344zm-1.067 1.049-.336-.512zm1.067-10.971-.505.344zm-1.067-1.049-.336.512zM3.952 8.648l.506.344zM5.02 7.599l.336.512zm3.795-1.59.6.122zm-1.18.98v-.612h-.027zm7.566-.98.6-.122zm1.18.98.027-.612h-.026zm1.723 4.302a.612.612 0 0 0 0-1.223zm-.87-1.223a.612.612 0 0 0 0 1.223zm-3.225 3.224a2 2 0 0 1-2 2.001v1.223a3.224 3.224 0 0 0 3.223-3.224zm-2 2.001a2 2 0 0 1-2.002-2H8.784a3.224 3.224 0 0 0 3.224 3.223zm-2.002-2c0-1.106.896-2.002 2.001-2.002v-1.223a3.224 3.224 0 0 0-3.224 3.224zm2.001-2.002c1.106 0 2.001.896 2.001 2.001h1.223a3.224 3.224 0 0 0-3.224-3.224zm1.936 8.357h-3.87v1.223h3.87zm-3.87 0c-1.372 0-2.356-.001-3.12-.078-.754-.075-1.227-.219-1.598-.463l-.671 1.023c.604.396 1.3.573 2.148.657.839.084 1.894.084 3.24.084zm-7.385-6.039c0 1.321-.001 2.36.084 3.185.087.836.267 1.523.674 2.12l1.01-.688c-.245-.361-.39-.82-.467-1.558-.078-.748-.078-1.712-.078-3.059zm2.667 5.498a3.2 3.2 0 0 1-.898-.88l-1.011.687c.328.482.748.895 1.238 1.216zm14.75-5.498c0 1.347-.002 2.31-.08 3.059-.075.737-.221 1.197-.467 1.558l1.011.688c.406-.597.587-1.284.673-2.12.086-.826.085-1.864.085-3.185zm-6.162 7.262c1.346 0 2.401 0 3.24-.084.849-.084 1.543-.26 2.148-.657l-.67-1.023c-.372.244-.845.388-1.6.463-.764.077-1.747.078-3.118.078zm5.615-2.645a3.2 3.2 0 0 1-.898.881l.671 1.023c.49-.321.91-.734 1.238-1.216zm1.77-4.617c0-1.321 0-2.36-.086-3.185-.086-.836-.267-1.523-.673-2.12l-1.011.688c.246.361.392.82.468 1.558.078.748.078 1.712.078 3.059zM18.66 8.111c.356.233.661.533.898.88l1.011-.687a4.45 4.45 0 0 0-1.238-1.216zm-14.75 5.498c0-1.347.001-2.31.079-3.059.076-.737.222-1.197.468-1.558l-1.011-.688c-.407.597-.587 1.284-.674 2.12-.085.826-.084 1.864-.084 3.185zm.774-6.52c-.49.32-.91.733-1.238 1.215l1.01.688c.238-.348.543-.648.899-.881zm5.9-1.894h2.846V3.972h-2.845zm-2.369.692a.61.61 0 0 1-.58.49V7.6c.878 0 1.61-.646 1.779-1.469zm6.386.244c.168.823.901 1.469 1.78 1.469V6.377a.61.61 0 0 1-.581-.49zm-1.171-.936c.578 0 1.062.4 1.171.936l1.199-.244a2.41 2.41 0 0 0-2.37-1.915zm-2.845-1.223a2.41 2.41 0 0 0-2.37 1.915l1.199.244c.109-.536.593-.936 1.17-.936zM16.355 7.6c1.184.052 1.825.196 2.306.512l.671-1.023c-.774-.508-1.703-.657-2.924-.71zM7.608 6.377c-1.22.054-2.15.204-2.923.711l.67 1.023c.481-.316 1.123-.46 2.307-.512zm10.496 3.691h-.87v1.223h.87z"/></svg>
